X:1
T:Samer, PM
T:Samer, PM
T:Walter Battison Haynes, 1892
T:Public Domain Courtesy of the Cyber Hymnal™
C:Walter Battison Haynes, 1892
Z:Public Domain
Z:Courtesy of the Cyber Hymnal™
%%score ( 1 2 ) ( 3 4 )
L:1/8
Q:1/4=115
M:4/4
K:Eb
V:1 treble 
V:2 treble 
V:3 bass 
V:4 bass 
V:1
 [EG]4 [CF]2 [DG]2 E4 [EG]4 | [Gc]6 [FB]2 [EB]4 [DA]4 | [EG]4 [DF]4 [CE]6 [EG]2 | %3
 [GB]2 [FA]2 [=EG]2 [FA]2 [DF]8 | [FB]4 [GB]2 [FB]2 [Ee]4 [Fd]4 | %5
 [Gd]2 [_Gc]2 [FB]2 [=E=G]2 (G4 F4) | [Dd]4 [FB]2 F2 [FG]2 [E=A]2 [DB]2 [EG]2 | %7
 [FG]4 [Fc]4 [DB]6 [DB]2 | c4 B4 E6 A2 | A4 G4 [CF]4 [CE]4 | E4 F4 [B,D]6 [B,E]2 | [B,E]8 |] %12
V:2
 x8 E4 x4 | x16 | x16 | x16 | x16 | x8 _E8 | x6 F2 x8 | x16 | D8 E8 | _D8 x8 | B,8 x8 | x8 |] %12
V:3
 [E,B,]4 [E,A,]2 [E,B,]2 [E,G,]4 [E,B,]4 | [E,E]6 [E,_D]2 [E,C]4 [E,_C]4 | %2
 [E,B,]4 [B,,A,]4 [C,G,]6 [C,C]2 | [A,,C]2 [A,,C]2 [C,C]2 [F,,C]2 [B,,B,]8 | %4
 [B,,D]4 [B,D]2 [A,D]2 [G,B,]4 [F,B,]4 | [E,G,]2 [E,=A,]2 [D,B,]2 [_D,B,]2 [C,A,]8 | %6
 [B,,F,]4 [D,B,]2 [D,D]2 [E,D]2 [F,C]2 [G,B,]2 [C,B,]2 | [F,B,]4 [F,=A,]4 [B,,B,]6 [B,,B,]2 | %8
 [B,,F,A,]8- [B,,F,A,]8 | [B,,=E,]8 [A,,F,]4 [=A,,^F,]4 | G,4 A,4 [B,,F,]6 [E,G,]2 | [E,G,]8 |] %12
V:4
 x16 | x16 | x16 | x16 | x16 | x16 | x16 | x16 | x16 | x16 | B,,8- x8 | x8 |] %12

